X:1
T:Bach - Pedal Exercitium.
C:Johann Sebastian Bach.
L:1/8
Q:1/4=70
M:4/4
K:Bb
V:1 bass-8 nm="Pipe Organ" snm="Org."
V:1
!fff!"^Pedal Exercitium." G,,/B,,/A,,/C,/ B,,/D,/C,/E,/ D,/G,/B,,/G,/ C,/G,/A,,/G,/ | %1
 G,,/B,,/A,,/C,/ B,,/D,/C,/E,/ D,/G,/B,,/G,/ C,/G,/A,,/G,/ | %2
 G,,/=B,,/A,,/C,/ B,,/D,/C,/E,/ D,/F,/C,/F,/ B,,/F,/G,,/F,/ | %3
 C,/E,/D,/F,/ E,/G,/F,/_A,/ G,/C/E,/C/ F,/C/D,/C/ | %4
 C,/E,/D,/F,/ E,/G,/F,/_A,/ G,/C/E,/C/ F,/C/D,/C/ | %5
 C,/=E,/D,/F,/ E,/G,/F,/_A,/ G,/B,/F,/B,/ E,/B,/C,/B,/ | %6
 F,/_A,/G,/A,/ F,/A,/_E,/A,/ D,/A,/B,,/A,/ C,/A,/D,/A,/ | %7
 E,/G,/F,/G,/ E,/G,/D,/G,/ C,/G,/_A,,/G,/ B,,/G,/C,/G,/ | %8
 D,/F,/E,/F,/ D,/F,/C,/F,/ =B,,/F,/G,,/F,/ =A,,/F,/B,,/F,/ | %9
 C,/E,/D,/E,/ C,/E,/_D,/=E,/ C,/E,/_B,,/G,/ _A,,/F,/G,,/=E,/ | %10
 F,,/F,/=E,/F,/ =D,/F,/_E,/^F,/ D,/F,/C,/=A,/ =B,,/G,/=A,,/^G,/ | %11
 G,,/G,/^F,/G,/ D,/G,/=F,/G,/ E,/G,/C,/G,/ D,/G,/=B,,/G,/ | %12
 G,,/G,/^F,/G,/ D,/G,/=F,/G,/ E,/G,/C,/G,/ D,/G,/=B,,/G,/ | %13
 G,,/G,/^F,/G,/ =F,/G,/E,/=A,/ D,/_B,/F,/B,/ D,/B,/B,,/A,/ | %14
 E,,/F,/=E,/F,/ _E,/F,/D,/G,/ C,/A,/E,/A,/ C,/A,/A,,/G,/ | %15
 D,/^F,/_E,/F,/ D,/F,/^C,/G,/ D,/F,/E,/F,/ D,/F,/C,/G,/ | %16
 D,/^F,/F,/A,/ D,/F,/F,/A,/ A,/F,/F,/_E,/ E,/C,/C,/A,,/ | %17
 ^F,,/C,/G,,/C,/ A,,/C,/B,,/C,/ A,,/C,/G,,/C,/ F,,/C,/=E,,/C,/ | %18
 D,, !wedge!A,B,^C, D,, !wedge!A,B,^C, | D,, !wedge!B,=C^C, D,, !wedge!B,=CC, | %20
 D,, !wedge!B,G,^C, D,, !wedge!B,G,C, | D,, !wedge!A,^F,^C, D,, !wedge!A,^F,C, | %22
 D,, !wedge!G,=E,^C, D,, !wedge!G,=E,C, | %23
 D,,/^F,/D,,/G,/ D,,/F,/D,,/=E,/ D,,/D,/D,,/_E,/ D,,/D,/D,,/^C,/ | %24
 D,,/^F,/D,,/G,/ D,,/F,/D,,/=E,/ D,,/D,/D,,/_E,/ D,,/D,/D,,/^C,/ | %25
 D,,/D,/_E,,/D,/ D,,/D,/^C,,/D,/ D,,/D,/D,,/_E,/ D,,/D,/D,,/^C,/ | %26
 D,, G,_A,=C, =B,,/D,/D,/=F,/ G,,/F,/B,,/F,/ | D,, F,_G,_B,, =A,,/C,/C,/E,/ F,,/E,/A,,/E,/ | %28
 B,,/D,/A,,/D,/ G,,/D,/F,,/D,/ E,,/G,/F,/G,/ E,/F,/D,/E,/ | %29
 C,/E,/B,,/E,/ A,,/E,/G,,/E,/ ^F,,/A,/^F,/A,/ D,/A,/C,/A,/ | B,,^F,,G,,A,, B,,^C,D,E, | %31
 ^F,G,_A,=B, C/E,/C/D,/ C/C,/C/_B,,/ | C/=A,,/C/G,,/ C/^F,,/C/=E,,/ D,,4 | x8 | x8 | %35

